X:1
T:Arbury Court
T:to the tune of "Shepherds Hey"
M:4/4
L:1/8
K:G
P:A
"G"BcdB "Am"c2c2|"G"BcdB "D"A4|"G"BcdB "C"c2Bc|"D"d2D2 "G"G4 :|
P:B
"G"B2G2 "C"c3A|"G"B2G2 "D"A4"*"|"G"BcdB "C"c2Bc|"D"d2D2 "G"G4 :|
